svg/blobs-icons/no-decorations/webcam.svg

<svg xmlns="http://www.w3.org/2000/svg" xmlns:xlink="http://www.w3.org/1999/xlink" preserveAspectRatio="xMidYMid" width="179" height="216" viewBox="0 0 179 216"><defs><style>.cls-3{fill:#2476ff}.cls-4{fill:#000;opacity:.35}.cls-5{fill:#fbb713}.cls-6{fill:#ededed}.cls-7{fill:#000;opacity:.25}</style></defs><g id="group-149svg"><path d="M110.098 173.004s31.459 31.459 31.459 31.459S141.44 205.057 141.44 205.057c0 5.786-23.447 10.486-52.378 10.486C60.143 215.543 36.691 210.843 36.691 205.057V204.463s31.46-31.459 31.46-31.459.0.0.0.0" id="path-1" class="cls-3" fill-rule="evenodd"/><path d="M110.097 173.004s-41.946.0-41.946.0-31.46 31.459-31.46 31.459S36.691 205.057 36.691 205.057C36.691 205.865 37.193 206.649 38.059 207.405l21.47-21.469s41.947.0 41.947.0 26.19 26.189 26.19 26.189C136.193 210.259 141.44 207.782 141.44 205.057L141.557 204.463s-31.46-31.459-31.46-31.459z" id="path-2" class="cls-4" fill-rule="evenodd"/><path d="M178.262 89.144c0 49.227-39.91 89.135-89.138 89.135-49.228.0-89.136-39.908-89.136-89.135S39.896.011 89.124.011c49.228.0 89.138 39.906 89.138 89.133z" id="path-3" class="cls-5" fill-rule="evenodd"/><path d="M125.827 89.144c0 20.267-16.431 36.702-36.703 36.702-20.267.0-36.703-16.435-36.703-36.702.0-20.266 16.436-36.702 36.703-36.702 20.272.0 36.703 16.436 36.703 36.702z" id="path-4" class="cls-6" fill-rule="evenodd"/><path d="M124.24 7.218c27.083 15.294 45.399 44.297 45.399 77.615.0 49.228-39.909 89.135-89.136 89.135C68.029 173.968 56.164 171.386 45.384 166.76 58.314 174.062 73.216 178.279 89.124 178.279c49.228.0 89.138-39.908 89.138-89.135.0-36.754-22.258-68.293-54.022-81.926z" id="path-5" class="cls-7" fill-rule="evenodd"/><path d="M101.162 54.503C110.845 61.112 117.206 72.23 117.206 84.833c0 20.267-16.431 36.703-36.703 36.703-4.22199999999999.0-8.261-.75-12.036-2.062C74.353 123.491 81.463 125.847 89.124 125.847c20.272.0 36.703-16.436 36.703-36.703.0-16.044-10.315-29.653-24.665-34.641z" id="path-6" class="cls-7" fill-rule="evenodd"/></g></svg>

<svg xmlns="http://www.w3.org/2000/svg" xmlns:xlink="http://www.w3.org/1999/xlink" preserveAspectRatio="xMidYMid" width="179" height="216" viewBox="0 0 179 216">
  <defs>
    <style>

      .cls-3 {
        fill: #2476ff;
      }

      .cls-4 {
        fill: #000000;
        opacity: 0.35;
      }

      .cls-5 {
        fill: #fbb713;
      }

      .cls-6 {
        fill: #ededed;
      }

      .cls-7 {
        fill: #000000;
        opacity: 0.25;
      }
    </style>
  </defs>
  <g id="group-149svg">
    <path d="M110.098,173.004 C110.098,173.004 141.557,204.463 141.557,204.463 C141.557,204.463 141.440,205.057 141.440,205.057 C141.440,210.843 117.993,215.543 89.062,215.543 C60.143,215.543 36.691,210.843 36.691,205.057 C36.691,205.057 36.691,204.463 36.691,204.463 C36.691,204.463 68.151,173.004 68.151,173.004 C68.151,173.004 68.151,173.004 68.151,173.004 " id="path-1" class="cls-3" fill-rule="evenodd"/>
    <path d="M110.097,173.004 C110.097,173.004 68.151,173.004 68.151,173.004 C68.151,173.004 36.691,204.463 36.691,204.463 C36.691,204.463 36.691,205.057 36.691,205.057 C36.691,205.865 37.193,206.649 38.059,207.405 C38.059,207.405 59.529,185.936 59.529,185.936 C59.529,185.936 101.476,185.936 101.476,185.936 C101.476,185.936 127.666,212.125 127.666,212.125 C136.193,210.259 141.440,207.782 141.440,205.057 C141.440,205.057 141.557,204.463 141.557,204.463 C141.557,204.463 110.097,173.004 110.097,173.004 Z" id="path-2" class="cls-4" fill-rule="evenodd"/>
    <path d="M178.262,89.144 C178.262,138.371 138.352,178.279 89.124,178.279 C39.896,178.279 -0.012,138.371 -0.012,89.144 C-0.012,39.917 39.896,0.011 89.124,0.011 C138.352,0.011 178.262,39.917 178.262,89.144 Z" id="path-3" class="cls-5" fill-rule="evenodd"/>
    <path d="M125.827,89.144 C125.827,109.411 109.396,125.846 89.124,125.846 C68.857,125.846 52.421,109.411 52.421,89.144 C52.421,68.878 68.857,52.442 89.124,52.442 C109.396,52.442 125.827,68.878 125.827,89.144 Z" id="path-4" class="cls-6" fill-rule="evenodd"/>
    <path d="M124.240,7.218 C151.323,22.512 169.639,51.515 169.639,84.833 C169.639,134.061 129.730,173.968 80.503,173.968 C68.029,173.968 56.164,171.386 45.384,166.760 C58.314,174.062 73.216,178.279 89.124,178.279 C138.352,178.279 178.262,138.371 178.262,89.144 C178.262,52.390 156.004,20.851 124.240,7.218 Z" id="path-5" class="cls-7" fill-rule="evenodd"/>
    <path d="M101.162,54.503 C110.845,61.112 117.206,72.230 117.206,84.833 C117.206,105.100 100.775,121.536 80.503,121.536 C76.281,121.536 72.242,120.786 68.467,119.474 C74.353,123.491 81.463,125.847 89.124,125.847 C109.396,125.847 125.827,109.411 125.827,89.144 C125.827,73.100 115.512,59.491 101.162,54.503 Z" id="path-6" class="cls-7" fill-rule="evenodd"/>
  </g>
</svg>
